brandFactory_export/3.Masa/Restaurante_3Masa.svg

<?xml version="1.0" encoding="UTF-8"?>
<svg width="24px" height="24px" viewBox="0 0 24 24" version="1.1" xmlns="http://www.w3.org/2000/svg" xmlns:xlink="http://www.w3.org/1999/xlink">
    <title>3.Masa/Restaurante_3Masa</title>
    <g id="Symbols" stroke="none" stroke-width="1" fill="none" fill-rule="evenodd">
        <g id="3.Masa/Restaurante_3Masa" fill="#5CB615" fill-rule="nonzero">
            <path d="M5.66386555,0.00336134454 C6.05714286,0.00336134454 6.37647059,0.32605042 6.37647059,0.72605042 L6.37647059,9.6 C6.37647059,10.3361345 5.94621849,10.887395 5.37478992,10.887395 L5.01512605,10.887395 C5.64033613,15.2773109 6.15798319,20.5008403 6.16470588,20.5546218 C6.16806723,22.8 4.63529412,23.6 3.31764706,23.6235294 L3.0789916,23.6235294 C1.77142857,23.6067227 0.231932773,22.8033613 0.231932773,20.6117647 C0.245378151,20.4672269 0.964705882,14.4470588 1.46554622,10.8806723 L1.00168067,10.8840336 C0.430252101,10.8840336 0,10.3327731 0,9.59663866 L0,0.766386555 C0,0.369747899 0.319327731,0.0235294118 0.712605042,0.0235294118 C1.10588235,0.0235294118 1.42521008,0.322689076 1.42521008,0.722689076 L1.42521008,6.16470588 L2.41008403,6.16470588 L2.41008403,0.722689076 C2.41008403,0.32605042 2.72941176,0 3.12268908,0 C3.51596639,0 3.83529412,0.322689076 3.83529412,0.722689076 L3.83529412,6.16470588 L4.94117647,6.16470588 L4.94789916,0.72605042 C4.9512605,0.32605042 5.27058824,0.00336134454 5.66386555,0.00336134454 Z M14.9714286,13.7176471 C15.4184874,17.2369748 15.7478992,20.5747899 15.7512661,20.6084034 C15.7546218,22.810084 14.2487395,23.5966387 12.9579832,23.6235294 L12.7327731,23.6235294 C11.4386555,23.6067227 9.92941176,22.8235294 9.92941176,20.6689076 C9.93613445,20.5882353 10.3462185,17.1193277 10.7630252,13.9327731 L10.5411765,13.9327731 C10.1478992,13.9327731 9.82857143,13.610084 9.82857143,13.210084 L9.82857143,4.71932773 C9.82857143,2.13109244 11.9092437,0.0268907563 14.4638655,0.0268907563 C14.8571429,0.0268907563 15.1764706,0.349579832 15.1764706,0.749579832 L15.1764706,13.210084 C15.1798319,13.4084034 15.102521,13.5865546 14.9714286,13.7176471 Z" id="Restaurante_3Masa"></path>
        </g>
    </g>
</svg>

<svg width="24" height="24" viewBox="0 0 24 24" xmlns="http://www.w3.org/2000/svg"><path d="M5.664.003c.393 0 .712.323.712.723V9.6c0 .736-.43 1.287-1.001 1.287h-.36c.625 4.39 1.143 9.614 1.15 9.668.003 2.245-1.53 3.045-2.847 3.069h-.239c-1.308-.017-2.847-.82-2.847-3.012.013-.145.733-6.165 1.234-9.731l-.464.003C.43 10.884 0 10.333 0 9.597V.767C0 .37.32.023.713.023c.393 0 .712.299.712.699v5.442h.985V.723A.72.72 0 013.123 0c.393 0 .712.323.712.723v5.442h1.106L4.948.726a.722.722 0 01.716-.723zm9.307 13.715c.447 3.519.777 6.857.78 6.89.004 2.202-1.502 2.989-2.793 3.016h-.225c-1.294-.017-2.804-.8-2.804-2.955.007-.08.417-3.55.834-6.736h-.222a.717.717 0 01-.712-.723V4.72c0-2.589 2.08-4.693 4.635-4.693.393 0 .712.323.712.723v12.46a.695.695 0 01-.205.508z" fill="#5CB615" fill-rule="nonzero"/></svg>
